dist/img/capability-img-3.svg

<svg width="54" height="54" viewBox="0 0 54 54" fill="none" xmlns="http://www.w3.org/2000/svg">
<g clip-path="url(#clip0_311_750)">
<path d="M1.9893 2.56263C1.40597 2.77096 0.989299 3.11471 0.676799 3.64596L0.385132 4.13554L0.353882 12.2397C0.333049 20.323 0.333049 20.3335 0.551799 20.8543C0.791382 21.4168 1.31222 21.9376 1.85388 22.1668C2.13513 22.2814 3.07263 22.3126 6.4268 22.3126C10.5101 22.3126 10.656 22.3022 10.8539 22.1043C11.1143 21.8439 11.1247 21.3647 10.8643 21.0522L10.6664 20.8022L6.47888 20.7501L2.29138 20.698L2.09347 20.448C1.90597 20.2189 1.89555 19.948 1.89555 13.7605V7.31262H12.3643H22.833V8.96887C22.833 10.6772 22.9268 11.198 23.2497 11.3751C23.5622 11.5418 23.958 11.5001 24.1872 11.271C24.3955 11.0626 24.406 10.9585 24.3747 7.52096L24.3435 4.00012L24.031 3.54179C23.6664 3.03138 23.1768 2.67721 22.6351 2.52096C22.031 2.35429 2.46847 2.38554 1.9893 2.56263ZM22.5726 4.23971C22.7914 4.44804 22.833 4.59387 22.833 5.12512V5.75012H12.3643H1.89555V5.16679C1.89555 4.66679 1.93722 4.55221 2.19763 4.28137L2.49972 3.97929H12.4164H22.3226L22.5726 4.23971Z" fill="white"/>
<path d="M5.78128 10.0209C5.29169 10.2188 5.19795 10.8334 5.59378 11.2188L5.84378 11.4792H12.4167C18.8438 11.4792 18.9792 11.4792 19.1875 11.2709C19.5 10.9584 19.4688 10.4063 19.125 10.1355C18.8542 9.91675 18.7709 9.91675 12.4271 9.92716C8.89586 9.92716 5.90628 9.96883 5.78128 10.0209Z" fill="white"/>
<path d="M29.0413 10.1354C28.6975 10.4063 28.6663 10.9583 28.9788 11.2708C29.1871 11.4792 29.3225 11.4792 38.6767 11.4792H48.1663L48.4684 11.7813C48.7288 12.0521 48.7705 12.1667 48.7705 12.6667V13.25H43.208C37.7496 13.25 37.6455 13.25 37.3746 13.4688C37.0309 13.7396 36.9996 14.2917 37.3121 14.6042C37.5205 14.8125 37.6559 14.8125 43.1455 14.8125H48.7705V20.4167C48.7705 26.6458 48.8017 26.375 48.0621 26.5833C47.8538 26.6354 47.083 26.6875 46.3538 26.6875C45.1559 26.6875 44.9996 26.7083 44.8121 26.8958C44.5517 27.1562 44.5413 27.6667 44.8017 27.9271C44.9163 28.0417 45.1767 28.1667 45.385 28.2083C46.0205 28.3229 48.3642 28.1979 48.7705 28.0208C49.3017 27.7917 49.7913 27.3542 50.0517 26.8542C50.2809 26.4271 50.2809 26.4167 50.3121 19.2917C50.333 13.8646 50.3121 12.0417 50.208 11.6875C50.0309 11.0208 49.1975 10.2083 48.5413 10.0417C48.1871 9.94792 45.5413 9.91667 38.6871 9.91667C29.3642 9.91667 29.3225 9.91667 29.0413 10.1354Z" fill="white"/>
<path d="M8.22955 13.4064C7.84414 13.6148 7.73997 14.1252 8.02122 14.4898L8.21914 14.7606L12.3441 14.7919C16.365 14.8127 16.4796 14.8127 16.6879 14.6044C17.0004 14.2919 16.9691 13.7398 16.6254 13.4689C16.3546 13.2606 16.24 13.2502 12.4275 13.2502C9.20872 13.2606 8.45872 13.2814 8.22955 13.4064Z" fill="white"/>
<path d="M25.7504 13.3126C22.6462 13.6876 20.0629 14.6355 17.8025 16.2396C16.7087 17.0105 14.9275 18.7917 14.1567 19.8855C12.8442 21.7292 11.8025 24.2188 11.4171 26.4271C11.1462 27.9688 11.1671 30.448 11.4587 31.9688C12.5942 37.7188 16.615 42.3021 22.1254 44.125C24.2921 44.8334 27.0942 45.0834 29.2087 44.7396L29.5942 44.6875L29.6254 47.3438L29.6567 50L29.9692 50.4584C30.3442 50.9792 30.8337 51.3334 31.3858 51.4792C31.6462 51.5521 35.2608 51.573 41.865 51.5625C53.0525 51.5313 52.1879 51.5834 52.9275 50.8438C53.6567 50.1146 53.615 50.7396 53.6462 41.7605C53.6671 33.6771 53.6671 33.6667 53.4483 33.1459C53.2087 32.5834 52.6879 32.0626 52.1462 31.8334C51.865 31.7188 50.865 31.6876 47.2087 31.6876H42.615L42.6983 30.9792C42.8337 29.823 42.7712 27.5521 42.5733 26.4271C41.8337 22.1251 39.2296 18.1771 35.5942 15.8334C33.8962 14.7292 31.6254 13.8438 29.7087 13.5209C28.7192 13.3438 26.4379 13.2292 25.7504 13.3126ZM29.5525 15.073C34.5525 15.948 38.8962 19.7188 40.5212 24.6146C41.0421 26.2084 41.2087 27.3334 41.1983 29.2396C41.1879 30.1563 41.1358 31.073 41.0942 31.2709L41.0004 31.6355H40.1254C39.5942 31.6355 39.2504 31.5938 39.2608 31.5313C39.615 29.2709 39.4483 27.0105 38.7608 25.0105C38.2504 23.5209 37.0942 21.5521 36.615 21.3646C36.2817 21.2396 35.865 21.4271 35.6462 21.823C35.4692 22.1459 35.3962 21.9792 36.3546 23.5417C36.9483 24.5105 37.4275 25.7396 37.6775 26.9584C37.8858 27.9584 37.9171 29.8855 37.74 30.9271L37.6046 31.6876H34.5212C31.115 31.6876 30.9483 31.7188 30.3025 32.3751C29.6671 33.0209 29.6567 33.0209 29.6046 36.4792L29.5525 39.6563L29.0317 39.7917C28.2504 40 25.8754 39.9792 24.8754 39.7709C23.6462 39.5001 22.4171 39.0209 21.4587 38.4376C20.0421 37.573 20.0317 37.573 19.7192 37.7396C19.3442 37.948 19.1567 38.3646 19.2817 38.698C19.5108 39.3021 22.1046 40.6771 23.8025 41.1146C25.3337 41.5 26.7608 41.625 28.1462 41.4792C28.7921 41.4167 29.365 41.3542 29.4379 41.3438C29.5733 41.323 29.6567 42.9271 29.5212 43.0625C29.3233 43.2605 27.0317 43.3959 25.7712 43.2709C19.2921 42.6355 14.24 38.0417 12.9796 31.6251C12.6983 30.2396 12.7296 27.7084 13.0317 26.2709C14.1046 21.198 17.74 17.1355 22.6046 15.5521C23.4587 15.2709 24.6775 15.0209 25.8546 14.8751C26.5108 14.7917 28.5942 14.9063 29.5525 15.073ZM51.8442 33.5105C52.0629 33.7188 52.1046 33.8646 52.1046 34.3959V35.0209H41.6358H31.1671V34.3751C31.1671 33.8542 31.2087 33.6876 31.3962 33.4896L31.615 33.2501H41.6046H51.5942L51.8442 33.5105ZM52.1046 43V49.4167L51.8025 49.7188L51.5004 50.0209H41.5837H31.6775L31.4275 49.7605L31.1671 49.5105V43.0417V36.5834H41.6358H52.1046V43Z" fill="white"/>
<path d="M25.7291 16.6875C21.7083 17.1458 18.2291 19.3958 16.2187 22.8333C14.125 26.4271 13.9896 30.8125 15.8541 34.5521C16.875 36.6042 17.3958 37.1354 18.0104 36.7396C18.1458 36.6458 18.3125 36.4583 18.375 36.3229C18.5 36.0417 18.4687 35.9687 17.6458 34.625C16.625 32.9479 16.1354 31.1458 16.1458 29.0312C16.1458 27.625 16.2916 26.7292 16.6979 25.5312C17.9583 21.8438 21.2708 19.0208 25.125 18.3438C26.1771 18.1667 28.1146 18.1875 29.125 18.4062C30.3333 18.6562 31.5729 19.1354 32.5416 19.7292C34.1041 20.6875 33.9375 20.6146 34.2604 20.4375C34.6562 20.2188 34.8437 19.8021 34.7187 19.4688C34.5208 18.9688 32.5208 17.8125 30.9271 17.2812C29.3437 16.75 27.2812 16.5104 25.7291 16.6875Z" fill="white"/>
<path d="M26.7398 20.021C26.3336 20.1772 26.219 20.4376 26.2294 21.198C26.2294 21.823 26.2606 21.948 26.469 22.1147C26.6044 22.2293 26.844 22.3126 27.0002 22.3126C27.1565 22.3126 27.3961 22.2293 27.5315 22.1147C27.7398 21.948 27.7711 21.823 27.7711 21.1876C27.7815 20.573 27.7398 20.4064 27.5732 20.2397C27.3127 19.9897 27.0107 19.9064 26.7398 20.021Z" fill="white"/>
<path d="M21.739 23.3542C21.4161 23.4792 21.239 23.75 21.239 24.0937C21.239 24.3646 21.4994 24.6771 23.0307 26.2083C24.7182 27.8958 24.8223 28.0312 24.7078 28.25C24.4994 28.6354 24.5515 29.6458 24.8119 30.1771C25.614 31.8229 28.0203 31.9792 28.9994 30.4375L29.3015 29.9687L32.4682 29.9167C35.5619 29.8646 35.6453 29.8542 35.864 29.6354C36.1453 29.3542 36.1661 28.8542 35.9057 28.5625C35.7286 28.3646 35.5932 28.3542 32.5515 28.3542H29.3953L29.0723 27.8333C28.614 27.0833 27.9057 26.6875 27.0203 26.6875C26.6557 26.6875 26.2598 26.7396 26.1453 26.8021C25.9473 26.9062 25.7494 26.7396 24.1453 25.1458C23.1661 24.1771 22.2703 23.3542 22.1557 23.3229C22.0411 23.2917 21.8536 23.3021 21.739 23.3542ZM27.5932 28.4792C28.2286 29.0729 27.5411 30.2187 26.7182 29.9062C26.3432 29.7708 26.1765 29.5104 26.1661 29.0937C26.1661 28.3437 27.0411 27.9583 27.5932 28.4792Z" fill="white"/>
<path d="M18.0934 28.5627C17.833 28.8543 17.8538 29.3543 18.135 29.6356C18.3225 29.8335 18.4788 29.8647 19.0934 29.8647C19.7392 29.8647 19.8538 29.8335 20.0309 29.6147C20.2913 29.3022 20.2809 28.8231 20.0204 28.5627C19.7184 28.2606 18.3642 28.2606 18.0934 28.5627Z" fill="white"/>
<path d="M26.4694 36.052C26.2611 36.2187 26.2298 36.3437 26.2298 37C26.2194 37.6979 26.2402 37.7604 26.5111 38C26.8652 38.302 27.0944 38.3125 27.4486 38.0416C27.7819 37.7812 27.9069 37.1145 27.7402 36.5C27.5631 35.8541 26.9694 35.6458 26.4694 36.052Z" fill="white"/>
<path d="M34.812 39.396C34.4995 39.7085 34.5308 40.2605 34.8745 40.5314C35.1454 40.7501 35.2391 40.7501 41.5516 40.7501C46.9579 40.7501 47.9891 40.7293 48.2391 40.5939C48.7183 40.3543 48.8016 39.9064 48.4475 39.4585L48.2391 39.1876H41.6245C35.1558 39.1876 35.0204 39.1876 34.812 39.396Z" fill="white"/>
<path d="M37.3326 42.7292C36.9992 43.0417 37.0201 43.5833 37.3847 43.875C37.6555 44.0833 37.7284 44.0937 41.6972 44.0625C46.1451 44.0312 45.9888 44.0521 46.1243 43.3854C46.1763 43.1146 46.1347 43 45.9263 42.7917L45.6555 42.5208H41.6034C37.6763 42.5208 37.5513 42.5313 37.3326 42.7292Z" fill="white"/>
<path d="M34.8323 46.0938C34.5093 46.4376 34.5302 46.9272 34.8739 47.198C35.1448 47.4167 35.2385 47.4167 41.6552 47.4167H48.1552L48.4052 47.1563C48.551 47.0209 48.6656 46.7813 48.6656 46.6355C48.6656 46.4897 48.551 46.2501 48.4052 46.1147L48.1552 45.8542H41.6031H35.051L34.8323 46.0938Z" fill="white"/>
<path d="M5.80233 16.698C5.29192 16.9896 5.19817 17.4271 5.55233 17.875L5.76067 18.1459H9.45858C13.0107 18.1459 13.1565 18.1355 13.3544 17.9375C13.6148 17.6771 13.6252 17.198 13.3648 16.8855L13.1669 16.6355L9.58358 16.6146C7.10442 16.5938 5.94817 16.625 5.80233 16.698Z" fill="white"/>
<path d="M41.7185 17.5209C41.2602 17.7084 41.1248 18.4167 41.479 18.7709C41.6769 18.9688 41.8227 18.9792 43.7081 18.9792H45.7394L45.9477 18.7084C46.0727 18.5522 46.1664 18.3647 46.1664 18.2917C46.1664 18.0209 45.9269 17.6459 45.6769 17.5313C45.3748 17.3959 42.0623 17.3855 41.7185 17.5209Z" fill="white"/>
<path d="M43.927 20.8543C43.4166 21.0522 43.2603 21.7085 43.6145 22.1043C43.7812 22.2814 43.9374 22.3126 44.7708 22.3126C45.6874 22.3126 45.7499 22.3022 45.9478 22.0418C46.0728 21.8855 46.1666 21.698 46.1666 21.6251C46.1666 21.323 45.9062 20.9585 45.6145 20.8543C45.2499 20.7293 44.2291 20.7293 43.927 20.8543Z" fill="white"/>
<path d="M5.17607 30.1668C4.69691 30.3751 4.19691 30.8335 3.94691 31.3126C3.71774 31.7397 3.71774 31.7397 3.68649 38.9168C3.65524 47.0105 3.63441 46.7189 4.42607 47.5001C5.22816 48.2918 4.64482 48.2501 15.2282 48.2501C24.6344 48.2501 24.6761 48.2501 24.9573 48.0314C25.3011 47.7605 25.3323 47.2084 25.0198 46.8959C24.8115 46.6876 24.6761 46.6876 15.3219 46.6876H5.83232L5.53024 46.3855L5.22816 46.0834V40.5001V34.9272L7.53024 34.8959C9.80107 34.8647 9.83232 34.8647 10.0302 34.6147C10.2907 34.3022 10.2802 33.823 10.0198 33.5626C9.8219 33.3647 9.67607 33.3543 7.5094 33.3543H5.20732L5.24899 32.6668C5.31149 31.6355 5.41566 31.5835 7.15524 31.5835C8.59274 31.5835 9.12399 31.4793 9.29065 31.1668C9.45732 30.8543 9.41565 30.4585 9.18649 30.2293C8.99899 30.0418 8.84274 30.021 7.23857 30.021C6.03024 30.0314 5.39482 30.073 5.17607 30.1668Z" fill="white"/>
<path d="M8.05171 38.6251C7.80171 38.9376 7.78088 39.073 7.94754 39.4376C8.14546 39.8542 8.51004 39.9376 10.0725 39.8959C11.4267 39.8647 11.51 39.8542 11.6975 39.6147C11.9684 39.2813 11.9475 38.8542 11.6559 38.5834C11.4267 38.3647 11.3121 38.3542 9.84338 38.3542H8.26004L8.05171 38.6251Z" fill="white"/>
<path d="M8.07276 41.9584C7.86442 42.1668 7.82276 42.2813 7.87484 42.5522C8.01026 43.198 7.97901 43.198 11.0623 43.2292L13.8748 43.2605L14.1353 43.0001C14.4686 42.6668 14.479 42.2188 14.1561 41.9168C13.9165 41.698 13.8436 41.6876 11.1248 41.6876H8.34359L8.07276 41.9584Z" fill="white"/>
</g>
<defs>
<clipPath id="clip0_311_750">
<rect width="53.3333" height="53.3333" fill="white" transform="translate(0.333252 0.333374)"/>
</clipPath>
</defs>
</svg>

<svg width="54" height="54" fill="none" xmlns="http://www.w3.org/2000/svg"><g clip-path="url(#a)" fill="#fff"><path d="M1.99 2.563A2.37 2.37 0 0 0 .676 3.646l-.292.49-.031 8.104c-.021 8.083-.021 8.094.198 8.614.24.563.76 1.084 1.302 1.313.281.114 1.219.146 4.573.146 4.083 0 4.229-.01 4.427-.209.26-.26.27-.74.01-1.052l-.198-.25-4.187-.052-4.188-.052-.198-.25c-.187-.23-.197-.5-.197-6.688V7.314H22.833v1.656c0 1.708.094 2.229.417 2.406.312.167.708.125.937-.104.208-.208.219-.313.188-3.75l-.032-3.52-.312-.46c-.365-.51-.854-.864-1.396-1.02-.604-.167-20.167-.135-20.646.042ZM22.572 4.24c.218.208.26.354.26.885v.625H1.896v-.583c0-.5.041-.615.302-.886L2.5 3.98h19.823l.25.26Z"/><path d="M5.781 10.02c-.49.199-.583.813-.187 1.199l.25.26h6.573c6.427 0 6.562 0 6.77-.208.313-.313.282-.865-.062-1.136-.27-.218-.354-.218-6.698-.208-3.531 0-6.52.042-6.646.094ZM29.041 10.135a.779.779 0 0 0-.062 1.136c.208.208.344.208 9.698.208h9.49l.301.302c.26.271.302.386.302.886v.583h-5.562c-5.458 0-5.563 0-5.833.219a.779.779 0 0 0-.063 1.135c.209.209.344.209 5.834.209h5.624v5.604c0 6.229.032 5.958-.708 6.166-.208.052-.979.105-1.708.105-1.198 0-1.354.02-1.542.208-.26.26-.27.77-.01 1.031.114.115.375.24.583.281.636.115 2.98-.01 3.386-.187.53-.23 1.02-.667 1.28-1.167.23-.427.23-.437.261-7.562.021-5.427 0-7.25-.104-7.605-.177-.666-1.01-1.479-1.667-1.645-.354-.094-3-.125-9.854-.125-9.323 0-9.364 0-9.646.218ZM8.23 13.406a.721.721 0 0 0-.209 1.084l.198.27 4.125.032c4.021.02 4.136.02 4.344-.188a.779.779 0 0 0-.063-1.135c-.27-.208-.385-.219-4.197-.219-3.22.01-3.97.031-4.198.156Z"/><path d="M25.75 13.313c-3.104.375-5.687 1.322-7.948 2.927-1.093.77-2.874 2.552-3.645 3.646-1.313 1.843-2.354 4.333-2.74 6.541-.27 1.542-.25 4.021.042 5.542 1.135 5.75 5.156 10.333 10.666 12.156 2.167.708 4.97.958 7.084.615l.385-.053.031 2.657.032 2.656.312.458c.375.521.865.875 1.417 1.021.26.073 3.875.094 10.479.084 11.188-.032 10.323.02 11.063-.72.729-.728.687-.103.718-9.083.021-8.083.021-8.093-.198-8.614-.24-.563-.76-1.083-1.302-1.313-.281-.114-1.281-.145-4.937-.145h-4.594l.083-.709c.136-1.156.073-3.427-.125-4.552-.74-4.302-3.343-8.25-6.979-10.594-1.698-1.104-3.969-1.99-5.885-2.312-.99-.177-3.271-.292-3.959-.208Zm3.802 1.76c5 .875 9.344 4.646 10.97 9.542.52 1.593.687 2.718.676 4.625-.01.916-.062 1.833-.104 2.03l-.094.366h-.875c-.53 0-.875-.042-.864-.105.354-2.26.187-4.52-.5-6.52-.51-1.49-1.667-3.459-2.146-3.646-.333-.125-.75.062-.969.458-.177.323-.25.156.709 1.719.593.968 1.073 2.198 1.323 3.416.208 1 .24 2.928.062 3.97l-.135.76H34.52c-3.406 0-3.573.03-4.219.687-.635.646-.645.646-.697 4.104l-.053 3.177-.52.136c-.782.208-3.157.187-4.157-.021-1.229-.27-2.458-.75-3.416-1.333-1.417-.865-1.427-.865-1.74-.698-.375.208-.562.625-.437.958.229.604 2.823 1.98 4.52 2.417 1.532.385 2.959.51 4.344.364a63.158 63.158 0 0 0 1.292-.135c.135-.021.219 1.583.083 1.718-.198.199-2.49.334-3.75.209-6.479-.636-11.531-5.23-12.791-11.646-.282-1.385-.25-3.917.052-5.354 1.073-5.073 4.708-9.136 9.573-10.719.854-.281 2.072-.531 3.25-.677.656-.083 2.74.031 3.697.198Zm22.292 18.438c.219.208.26.354.26.885v.625H31.168v-.646c0-.52.042-.687.23-.885l.218-.24h19.98l.25.26Zm.26 9.489v6.417l-.301.302-.303.302H31.677l-.25-.26-.26-.25V36.582h20.938V43Z"/><path d="M25.73 16.688c-4.022.458-7.5 2.708-9.511 6.145a12.311 12.311 0 0 0-.365 11.72c1.021 2.051 1.542 2.582 2.156 2.187.136-.094.302-.282.365-.417.125-.281.094-.354-.73-1.698-1.02-1.677-1.51-3.48-1.5-5.594 0-1.406.147-2.302.553-3.5 1.26-3.687 4.573-6.51 8.427-7.187 1.052-.177 2.99-.157 4 .062 1.208.25 2.448.73 3.417 1.323 1.562.959 1.395.886 1.718.709.396-.22.584-.636.459-.97-.198-.5-2.198-1.655-3.792-2.187-1.583-.531-3.646-.77-5.198-.593Z"/><path d="M26.74 20.021c-.406.156-.521.417-.51 1.177 0 .625.03.75.239.917a.955.955 0 0 0 .531.198.955.955 0 0 0 .532-.198c.208-.167.24-.292.24-.927.01-.615-.032-.782-.199-.948-.26-.25-.562-.334-.833-.219ZM21.739 23.354a.754.754 0 0 0-.5.74c0 .27.26.583 1.792 2.114 1.687 1.688 1.791 1.823 1.677 2.042-.209.385-.156 1.396.104 1.927.802 1.646 3.208 1.802 4.187.26l.303-.468 3.166-.052c3.094-.052 3.177-.063 3.396-.282.281-.28.302-.78.042-1.073-.177-.197-.313-.208-3.355-.208h-3.156l-.323-.52c-.458-.75-1.166-1.146-2.052-1.146-.364 0-.76.052-.875.114-.198.104-.396-.062-2-1.656-.979-.969-1.875-1.792-1.99-1.823a.716.716 0 0 0-.416.031Zm5.854 5.125c.636.594-.052 1.74-.875 1.427-.375-.135-.541-.396-.552-.812a.84.84 0 0 1 1.427-.615ZM18.093 28.563c-.26.291-.24.791.042 1.073.188.198.344.229.958.229.646 0 .76-.031.938-.25.26-.313.25-.792-.01-1.052-.303-.302-1.657-.302-1.928 0ZM26.47 36.052c-.209.167-.24.292-.24.948-.01.698.01.76.281 1 .354.302.583.313.938.042.333-.26.458-.928.291-1.542-.177-.646-.77-.854-1.27-.448ZM34.812 39.396a.779.779 0 0 0 .063 1.135c.27.22.364.22 6.677.22 5.406 0 6.437-.022 6.687-.157.48-.24.563-.688.209-1.136l-.209-.27h-6.614c-6.47 0-6.605 0-6.813.208ZM37.333 42.73a.759.759 0 0 0 .052 1.145c.27.208.343.219 4.312.188 4.448-.032 4.292-.01 4.427-.678.052-.27.01-.385-.198-.593l-.27-.271h-4.053c-3.927 0-4.052.01-4.27.208ZM34.832 46.094c-.323.344-.302.833.042 1.104.27.219.364.219 6.781.219h6.5l.25-.26c.146-.136.26-.376.26-.521 0-.146-.114-.386-.26-.521l-.25-.26H35.051l-.219.239ZM5.802 16.698c-.51.292-.604.73-.25 1.177l.209.27h3.698c3.552 0 3.697-.01 3.895-.207.26-.26.271-.74.01-1.052l-.197-.25-3.583-.021c-2.48-.021-3.636.01-3.782.083ZM41.718 17.52c-.458.188-.593.897-.239 1.25.198.199.344.21 2.23.21h2.03l.209-.272c.125-.156.218-.343.218-.416 0-.271-.24-.646-.49-.76-.301-.136-3.614-.146-3.958-.011ZM43.927 20.854c-.51.198-.667.855-.313 1.25.167.177.323.209 1.157.209.916 0 .979-.01 1.177-.271.125-.157.219-.344.219-.417 0-.302-.26-.666-.553-.77-.364-.126-1.385-.126-1.687 0ZM5.176 30.167c-.48.208-.98.666-1.23 1.146-.228.427-.228.427-.26 7.604-.03 8.093-.052 7.802.74 8.583.802.792.219.75 10.802.75 9.406 0 9.448 0 9.73-.219a.779.779 0 0 0 .062-1.135c-.209-.208-.344-.208-9.698-.208h-9.49l-.302-.303-.302-.302V34.927l2.302-.031c2.271-.031 2.302-.031 2.5-.281.26-.313.25-.792-.01-1.052-.198-.198-.344-.209-2.51-.209H5.206l.042-.687c.062-1.032.167-1.084 1.906-1.084 1.438 0 1.969-.104 2.136-.416.166-.313.125-.709-.105-.938-.187-.187-.343-.208-1.947-.208-1.209.01-1.844.052-2.063.146Z"/><path d="M8.052 38.625c-.25.313-.271.448-.104.813.197.416.562.5 2.124.458 1.355-.031 1.438-.042 1.626-.281.27-.334.25-.76-.042-1.032-.23-.218-.344-.229-1.813-.229H8.26l-.208.271ZM8.073 41.958c-.209.209-.25.323-.198.594.135.646.104.646 3.187.677l2.813.032.26-.26c.334-.334.344-.782.021-1.084-.24-.219-.312-.23-3.031-.23H8.344l-.271.271Z"/></g><defs><clipPath id="a"><path fill="#fff" transform="translate(.333 .333)" d="M0 0h53.333v53.333H0z"/></clipPath></defs></svg>
